packages/core/src/svgs/tokens/branded/GCR.svg

<svg width="24" height="24" viewBox="0 0 24 24" fill="none" xmlns="http://www.w3.org/2000/svg">
<path d="M12.6878 14.4997H17.4562C17.5311 14.4997 17.6249 14.5621 17.6249 14.6433V17.5369C17.6249 17.562 17.6249 17.5869 17.6123 17.6057C17.6012 17.6288 17.5839 17.6481 17.5623 17.6619C15.9376 18.6619 13.9751 19.2681 12.0879 18.9868C10.2005 18.6994 8.38186 17.6495 7.51319 15.8871C5.58835 11.9999 6.74451 6.7003 11.2379 5.37539C13.5502 4.68796 16.0188 5.48789 17.8624 6.98152C17.8999 7.00652 17.9374 7.01902 17.9811 7.01276C18.0186 7.01276 18.0561 6.99403 18.0873 6.96278L20.0247 4.7067C20.0328 4.69589 20.0372 4.68273 20.0372 4.66921C20.0372 4.65569 20.0328 4.64252 20.0247 4.6317C20.0225 4.62254 20.0182 4.614 20.0121 4.60671C16.4249 1.75069 11.7503 1.02575 7.78191 3.5193C6.23374 4.51032 5.01547 5.93961 4.28219 7.62522C2.9698 10.5 2.90731 13.3998 4.10721 16.3245C5.66334 20.1367 9.1568 22.1365 13.2002 21.9928C16.0437 21.8929 18.3248 21.0429 20.5559 19.2118C20.7183 19.0806 20.7434 18.9742 20.7434 18.7743L20.7497 12.7622C20.7497 12.7185 20.6746 12.6249 20.6371 12.6249H12.6878C12.6315 12.6249 12.619 12.6498 12.619 12.7061V14.4122C12.619 14.4746 12.6315 14.4934 12.6815 14.4997H12.6878ZM12.7065 10.1251H20.6683C20.7121 10.1251 20.7497 10.1688 20.7497 10.225V11.8999C20.7497 11.9561 20.7121 11.9999 20.6683 11.9999H12.7065C12.6627 11.9999 12.6252 11.9561 12.6252 11.8999V10.225C12.6252 10.1688 12.6627 10.1251 12.7065 10.1251Z" fill="#8BC341"/>
</svg>

<svg xmlns="http://www.w3.org/2000/svg" width="24" height="24" fill="none" viewBox="0 0 24 24">
    <path fill="#8BC341" d="M12.688 14.5h4.768c.075 0 .169.062.169.143v2.894c0 .025 0 .05-.013.069a.14.14 0 0 1-.05.056c-1.624 1-3.587 1.606-5.474 1.325-1.887-.288-3.706-1.337-4.575-3.1C5.588 12 6.745 6.7 11.238 5.375c2.312-.687 4.78.113 6.624 1.607a.16.16 0 0 0 .12.03.15.15 0 0 0 .105-.05l1.938-2.255a.06.06 0 0 0 0-.075l-.013-.025C16.425 1.75 11.75 1.026 7.782 3.519a9.26 9.26 0 0 0-3.5 4.106c-1.312 2.875-1.375 5.775-.175 8.7 1.556 3.812 5.05 5.812 9.093 5.668 2.844-.1 5.125-.95 7.356-2.781.162-.131.187-.238.187-.438l.007-6.012c0-.043-.075-.137-.113-.137h-7.95c-.055 0-.068.025-.068.081v1.706c0 .063.013.081.063.088zm.018-4.375h7.962c.044 0 .082.044.082.1V11.9c0 .056-.038.1-.082.1h-7.961c-.044 0-.082-.044-.082-.1v-1.675c0-.056.038-.1.082-.1"/>
</svg>
